!!!!SEGMENT: pl-kk--kk-i-69--010_anonim--protexisti-pro-festo-dona-nobis.krn
!!!cenid: 17xx:2291
!!!COM: Anonim
!!!COM-rismID: pe30004985
!!!CDT:
!!!CNT:
!!!OPR: Protexisti pro festo
!!!OTL: Dona nobis
!!!OMV: 010
!!!PDT:
!!!AGN: Sacred; Mass
!!!SMS-siglum: PL-Kk
!!!SMS-shelfmark: Kk.I.69
!!!SMS-shelfwork: 001-010 M
!!!SMS-variant:
!!!SMS-altvar:
!!!NIFC-rismSourceID: 1001154789
!!!NIFC-rismChildID: 1001154789
!!!NIFC-islandoraID: pl-kk:15747
!!!URL-pdf-islandora: https://repozytorium.nifc.pl/islandora/object/pl-kk%3A15747/datastream/PDF/view
!!!URL-scan: https://polish.musicsources.pl/pl/lokalizacje/galeria/rekopisy/7324/1 @EN{Scan on Polish Music Sources Website} @PL{Skany w portalu Dziedzictwo Muzyki Polskiej w otwartym dostępie}
!!!ONB-nifc: UWAGA: części Mszy: 1. Protexisti me, 2. Kyrie, 3. Et in terra, 4. Alleluia, 5. Patrem, 6. Posuisti Domine, 7. Sanctus, 8. Benedictus, 9. Agnus Dei, 10. Dona nobis, 11. Deo gratias
!!!AIN: 1 empty 2 tenor
!!!key:
**kern	**text	**kern	**text	**kern	**text
*part3	*part3	*part2	*part2	*part1	*part1
*staff3	*staff3	*staff2	*staff2	*staff1	*staff1
*Iempty	*	*Itenor	*	*Itenor	*
*I"Baſso	*	*I"Tenore Secundo	*	*I"Tenore Primo	*
*I'B	*	*I'T 2	*	*I'T 1	*
*clefF4	*	*clefC4	*	*clefC4	*
*k[]	*	*k[]	*	*k[]	*
*C:	*	*C:	*	*C:	*
*M2/2	*	*M2/2	*	*M2/2	*
*met(c|)	*	*met(c|)	*	*met(c|)	*
*2\right	*	*2\right	*	*2\right	*
=1	=1	=1	=1	=1	=1
!	!	!	!	!	!
2C/	Do-	2G/	Do-	2e\	Do-
2E\	-na	2c\	-na	2g\	-na
=2	=2	=2	=2	=2	=2
2G\	no-	2B\	no-	2f\	no-
2c\	-bis	2G/	-bis	2e\	-bis
=3	=3	=3	=3	=3	=3
1G	pa-	4B\	pa-	4d\	pa-
.	.	4c\	.	4e\	.
.	.	4d\	.	4f\	.
.	.	4B\	.	4d\	.
=4	=4	=4	=4	=4	=4
2C/	-cem	2c\	-cem	2e\	-cem
4C/	do-	4e\	do-	4g\	do-
4E/	-na	4c\	-na	4e\	-na
=5	=5	=5	=5	=5	=5
2G\	no-	2B\	no-	2d\	no-
2G\	-bis	4c\	.	4e\	.
.	.	4B\	-bis	4d\	-bis
=6	=6	=6	=6	=6	=6
4D\	pa-	1A	pa-	1c	pa-
4E\	.	.	.	.	.
4F#X\	.	.	.	.	.
4D\	.	.	.	.	.
=7	=7	=7	=7	=7	=7
2G\	-cem	2G/	-cem	2B\	-cem
!	!	!	!	!LO:LB:g=original	!
4G\	do-	4B\	do-	4d\	do-
4G\	-na	4c\	-na	4e\	-na
=8	=8	=8	=8	=8	=8
!LO:LB:g=original	!	!LO:LB:g=original	!	!	!
4G\	no-	1d	no-	1f	no-
4A\	.	.	.	.	.
4B\	.	.	.	.	.
4G\	.	.	.	.	.
=9	=9	=9	=9	=9	=9
4c\	.	1c	-bis	1e	-bis
4G\	.	.	.	.	.
4E\	.	.	.	.	.
4C\	-bis	.	.	.	.
=10	=10	=10	=10	=10	=10
4F\	pa-	1B	pa-	1d	pa-
4D\	.	.	.	.	.
2G\	.	.	.	.	.
=11	=11	=11	=11	=11	=11
2C/	-cem	2G/	-cem	2e\	-cem
4G\	do-	4B\	do-	4d\	do-
4G\	-na	4c\	-na	4e\	-na
=12	=12	=12	=12	=12	=12
2G\	no-	4d\	no-	4f\	no-
.	.	4c\	.	4e\	.
2G\	-bis	4B\	.	4d\	.
.	.	4d\	-bis	4f\	-bis
=13	=13	=13	=13	=13	=13
4E\	pa-	4c\	pa-	4e\	pa-
4D\	.	4d\	.	4f\	.
4C\	.	4e\	.	4g\	.
4E\	.	4c\	.	4e\	.
=14	=14	=14	=14	=14	=14
1G	.	4d\	.	4f\	.
.	.	4c\	.	4e\	.
.	.	4B\	.	4d\	.
.	.	4d\	.	4f\	.
=15	=15	=15	=15	=15	=15
!	!	!	!	!LO:LB:g=original	!
2C/	-cem	2G/	-cem	2e\	-cem
!LO:LB:g=original	!	!	!	!	!
4c\	Do-	4G/	do-	4e\	do-
4c\	-na	4G/	-na	4e\	-na
=16	=16	=16	=16	=16	=16
!	!	!LO:LB:g=original	!	!	!
4G\	no-	1d	no-	1f	no-
4A\	.	.	.	.	.
4B\	.	.	.	.	.
4G\	.	.	.	.	.
=17	=17	=17	=17	=17	=17
4C/	.	1c	-bis	1e	-bis
4D/	.	.	.	.	.
4E/	.	.	.	.	.
4C/	-bis	.	.	.	.
=18	=18	=18	=18	=18	=18
2F\	pa-	1B	pa-	1d	pa-
2G\	.	.	.	.	.
=19	=19	=19	=19	=19	=19
2C/	-cem	2G/	-cem	2e\	-cem
2G\	pa-	2B/	pa-	2d\	pa-
=20	=20	=20	=20	=20	=20
1C	-cem	1G	-cem	2e\	-cem
.	.	.	.	2r	.
==	==	==	==	==	==
*-	*-	*-	*-	*-	*-
!!!system-decoration: [(s1,s2,s3)]
!!!ENC: Kamil Watkowski
!!!END: 2021-08-06
!!!YEC: Copyright 2022 Narodowy Instytut Fryderyka Chopina (https://polishscores.org)
!!!YEM: License CC-BY-4.0 (https://creativecommons.org/licenses/by/4.0)
